X: 26358
T: Merrily Kissed The Quaker
R: slide
M: 12/8
K: Dmajor
M:6/8
|:A|def A2 f|g2 f e3|def A2 A|B3 d3|
d>ef A2 f|a>gf e2 c|d>ef {f/}ecA|1 G3 d2:|2 B3 d2||
|:A|def a2 f|a2 f a2 f|def a2 g|f3 a2 f|
def a2 f|b2 f a2 f|def ecA|B3 d3|
def a2 f|b2 f a2 f|def a2 g|f3 a2 a|
b2 g efg|a2 f d2 A|def {f/}[A2e2] A|B3 d2||
|:A|def A2 A|BGB A2 A|def A2 g|f2 a gfe|
def A2 A|BGB A2 A|{f/g/}fed faf|e3 d2:|
|:A|de[df] [d2f2] a|f2 a fed|def faf|efe ecA|
def [d2f2] a|f2 a f>ed|fed faf|e3 d2:|

